X:1
T:Soave libertate
T:Simone Molinaro Genevese
T:Source : Canzonette a tre voci---Libro secondo---R.Amadino---1600. Editor : André Vierendeels (26/11/16).
T:Notes : Original clefs : C2, C3, C4 Editorial accidentals above the staff m 42 in B: "G" notated as whole note in original print
T:Soave libertate
T:©
T:©
T:©
T:©
T:©
T:©
C:Simone Molinaro Genevese
Z:©
%%score [ 1 2 3 ]
L:1/8
Q:1/4=100
M:4/4
K:C
V:1 treble nm="Alto 1" snm="A 1"
V:2 treble nm="Alto 2" snm="A 2"
V:3 treble-8 nm="Tenor" snm="T"
V:1
 D8 | D8- | D4 D4 | D4 D4 | E8 | E2 E2 F2 E2 | G6 F2 | E4 D4 | z2 D2 F4 | C2 C2 E4 | F2 E4 F2 | %11
w: So-|a-|* ve|li- ber-|ta-|te, gia per si|lun- ga'e-|ta- te,|mia ca-|ra, mia ca-|ra com- pa-|
 G4 A4 | z4 F4- | F2 E2 E2 D2- | D2 F2 E4 | D8 | A8- | A4 ^G4 | A2 F2 E2 F2 | C2 E2 D4 | D2 G4 A2 | %21
w: gni- a,|che|_ da me ti|_ des- vi-|a,|O|_ de-|a, O de- a|de- si- a-|ta, e da|
 G4 F2 E2 | G6 G2 | z2 G2 ABcA | B2 A2 z2 G2 | ABcA B2 A2 | z CDE FG A2- | AG F2 E4 | z2 F4 E2 | %29
w: me tan- to'a-|ma- ta,|o- ve ne vai ve-|lo- ce, o-|ve ne vai ve- lo- ce,|o- ve ne vai ve- lo-|* * * ce,|las- so|
 z2 E2 c4- | c2 d4 c2- | c2 B2 c4 | z2 G2 G2 F2 | E6 D2 | C4 B,4 | z2 B,2 D2 E2 | z4 E4 | %37
w: ch'ad al-|* ta vo-|* * ce,|in van ti|chiam' e|pian- go,|tu fug- gi|et|
 E2 E2 D4 | D2 F4 E2- | E2 A3 G F2 | E4 E4 | A,4 B,4- | B,4 ^C4 | D8 | ^C4 ^D4 | E8 | ^D4 E4 | %47
w: io ri- man-|go stret- t'in|_ bel- le ca-|te- ne,|d'al- tre'a-|* mo-|ro-|se pe-||* ne|
 z2 ^C2 D3 C | A,2 B,2 C4 | C2 G2 G4 | z2 G2 A2 c2 | B4 A2 A2 | A2 ^G2 A3 B | c2 B3 A A2- | %54
w: e d'al- tro|bel de- si-|o, a dio|per sem- pre'a|di- o, per|sem- pre'a- di- *||
 A2 ^G2 A2 E2 | F4 E4 | z2 D2 E4 | D4 z2 A,2 | A,2 ^G,2 A,4 | B,2 E2 F2 F2 | E4 D4- | D8 |] %62
w: * * o, a|di- o,|a- di-|o, per|sem- pre'a di-|o, per sem- pre'a|di- o.|_|
V:2
 A,8 | B,8- | B,4 A,4 |"^b" B,4 D4 | ^C8 | ^C4 z2 =C2 | D2 E4 D2- | D2 C2 B,4 | B,2 B,2 D4 | %9
w: So-|a-|* ve|li- ber-|ta-|te, gia|per si lun-|* ga'e- ta-|te, mia ca-|
 A,2 A,2 C4 | A,2 A2 G2 F2- | F2 E2 F4 | D6 C2 | C4 B,4 | B,2 D4 ^C2 | D8 | z2 F2 E2 F2 | %17
w: ra, mia ca-|ra com- pa- ni-|* * a,|che da|me ti|des- vi- *|a,|O de- a|
 C2 E2 D2 DD | ^C2 D2 A,4- | A,2 C2 B,4 | B,4 E4- | E2 D2 C4 | D2 D2 E4 | E4 z2 C2 | DEFD E2 D2 | %25
w: de- si- a- ta, O|de- a de-|* si- a-|ta, e|_ da me|tan- to'a- ma-|ta, o-|ve ne vai ve- lo- ce,|
 z DEF G2 F2 | EA,B,C DE F2- | FE D2 ^C4 | z4 C4- | C2 B,2 z2 E2 | A4 G4 | F4 E2 E2 | E2 D2 C4- | %33
w: o- ve ne vai ve-|lo- ce'o- ve ne vai ve- lo-|* * * ce,|las-|* so ch'ad|al- ta|vo- ce, in|van ti chiam'|
 C2 B,2 A,4- | A,4 ^G,4 | z2 ^G,2 A,2 B,2 | z4 C4 | C2 C2 B,4 | B,2 D4 C2- | C2 F3 E D2 | ^C4 C4 | %41
w: _ e pian-|* go,|tu fug- gi|et|io ri- man-|go stret- t'in|_ bel- le ca-|te- ne,|
 D8 | E8 | F8 | E6 ^F2 | ^G8 | ^F4 ^G4 | z2 E2 F3 E | D2 D2 E4 | E4 z2 E2 | E4 z2 A2 | %51
w: d'al-|tre'a-|mo-|ro- se|pe-|* ne|e d'al- tre|bel de- si-|o, a|dio per|
 A2 ^G2 A2 D2 | z2 E2 F4 | E2 B,2 C2 C2 | B,4 A,2 C2 | C2 D2 A,B, C2- | C2 B,2 C2 G,2 | %57
w: sem- pr''a- di- o,|a di-|o per sem- pre'a|di- o, per|sem- pre'a di- * *|* * o, per|
 A,2 B,2 C4 | B,2 E2 F4 | E2 B,2 ^C2 D2- | D2 ^C2 D4- | D8 |] %62
w: sem- pre'a di-|o, a di-|o per sempre'a di-|* * o.|_|
V:3
 D8 | G8- | G4 ^F4 | G4 _B4 | A8 | A4 z2 A2 | B2 c2 A4- | A2 E2 G4 | G4 z2 D2 | F4 C2 A2 | %10
w: So-|a-|* ve|li- ber-|ta-|te, gia|per si lun-|* ga'e- ta-|te, mia|ca- ra, mia|
 c3 B c2 d2 | c4 F4 | _B6 A2 | A4 G4- | G2 D2 A4 | D8 | z2 d2 ^c2 d2 | A2 c2 B4 | A2 D2 ^C2 D2 | %19
w: ca- ra com- pa-|ni- a,|che da|me ti|_ des- vi-|a,|O de- a|de- si- a-|ta, O de- a|
 F2 E2 G4 | G4 c4- | c2 B2 A4 | B2 B2 c4 | c8 | G2 AB cA B2 | A4 z EFG | A2 G2 F2 DD | DEFG A4 | %28
w: de- si- a-|ta, e|_ da me|tan- to'a- ma-|ta,|o- ve- ne vai ve- lo-|ce, o- ve- ne|vai ve- lo- ce, ve-|lo- * * * ce,|
 z4 A4- | A2 ^G2 z2 A2 | f4 e4 | d4 c2 c2 | c2 B2 A4- | A2 G2 F4 | E8 | z2 E2 F2 E2 | z4 C4 | %37
w: las-|* so ch'ad|al- ta|vo- ce, in|van ti chiam'|_ e pian-|go,|tu fug- gi|et|
 E3 F G4 | G2 D4 A2- | A2 A3 C D2 | A4 A4 | ^F4 G4 | ^G4 A4- | A4 A4- | A4 B4- | B8- | B4 E4 | %47
w: io ri- man-|go stre- t'in|_ bel- le ca-|te- ne,|d'al tre'a-|mo- ro-|* se|_ pe-||* ne,|
 z2 A2 D3 E | F2 D2 C4 | C4 z2 c2 | c4 z2 c2 | d2 e2 f4 | e4 z2 A2 | A2 ^G2 A4 | E4 z2 A2 | %55
w: e d'al- tre|bel de- di-|o, a-|dio per|sem- pr'a- di-|o, a|di- * *|o, per|
 A2 B2 c4 | G4 z2 E2 | F2 G2 A4 | E4 z2 A2 | A2 ^G2 A4- | A4 D4- | D8 |] %62
w: sem- pre'a di-|o, per|sem- pre'a di-|o per|sem- pre'a di-|* o.|_|

